client/public/assets/icons/custom/custom21.svg

<?xml version="1.0"?><svg xmlns="http://www.w3.org/2000/svg" width="100" height="100" viewBox="0 0 100 100"><g fill="#fff"><path d="m57.6 71.1c-0.3-0.7-1-1.1-1.8-1.1h-11.6c-0.8 0-1.5 0.4-1.8 1.1l-2.7 7.4c-0.3 0.7 0.2 1.4 0.9 1.4h18.8c0.7 0 1.2-0.8 0.9-1.4l-2.7-7.4z m16.4-51.1h-48c-3.3 0-6 2.7-6 6v32c0 3.3 2.7 6 6 6h48c3.3 0 6-2.7 6-6v-32c0-3.3-2.7-6-6-6z m-24 42c-1.7 0-3-1.3-3-3s1.3-3 3-3 3 1.3 3 3-1.3 3-3 3z m24-10c0 1.1-0.9 2-2 2h-44c-1.1 0-2-0.9-2-2v-24c0-1.1 0.9-2 2-2h44c1.1 0 2 0.9 2 2v24z"></path></g></svg>

<?xml version="1.0" encoding="utf-8"?>
<!-- Generator: Adobe Illustrator 16.0.0, SVG Export Plug-In . SVG Version: 6.00 Build 0)  -->
<!DOCTYPE svg PUBLIC "-//W3C//DTD SVG 1.1//EN" "http://www.w3.org/Graphics/SVG/1.1/DTD/svg11.dtd">
<svg version="1.1" id="Layer_1" xmlns="http://www.w3.org/2000/svg" xmlns:xlink="http://www.w3.org/1999/xlink" x="0px" y="0px"
	 width="100px" height="100px" viewBox="0 0 100 100" enable-background="new 0 0 100 100" xml:space="preserve">
<g>
	<path fill="#FFFFFF" d="M57.6,71.1c-0.3-0.699-1-1.1-1.8-1.1H44.2c-0.8,0-1.5,0.4-1.8,1.1l-2.7,7.4c-0.3,0.7,0.2,1.4,0.9,1.4h18.8
		c0.699,0,1.199-0.801,0.899-1.4L57.6,71.1z"/>
	<path fill="#FFFFFF" d="M74,20H26c-3.3,0-6,2.7-6,6v32c0,3.3,2.7,6,6,6h48c3.3,0,6-2.7,6-6V26C80,22.7,77.3,20,74,20z M50,62
		c-1.7,0-3-1.3-3-3s1.3-3,3-3s3,1.3,3,3S51.7,62,50,62z M74,52c0,1.1-0.9,2-2,2H28c-1.1,0-2-0.9-2-2V28c0-1.1,0.9-2,2-2h44
		c1.1,0,2,0.9,2,2V52z"/>
</g>
</svg>
